src/images/svg/symbols/jump-25-new.svg

<svg width="33" height="32" viewBox="0 0 33 32" fill="none" xmlns="http://www.w3.org/2000/svg">
<path fill-rule="evenodd" clip-rule="evenodd" d="M4.66602 12V14H2.66602V12H4.66602Z" fill="#FF444F"/>
<path fill-rule="evenodd" clip-rule="evenodd" d="M8.66602 12V16H6.66602V12H8.66602Z" fill="#FF444F"/>
<path fill-rule="evenodd" clip-rule="evenodd" d="M12.666 12V29H10.666V12H12.666Z" fill="#FF444F"/>
<path fill-rule="evenodd" clip-rule="evenodd" d="M16.666 26V32H14.666V26H16.666Z" fill="#FF444F"/>
<path fill-rule="evenodd" clip-rule="evenodd" d="M20.666 22V29H18.666V22H20.666Z" fill="#85ACB0"/>
<path fill-rule="evenodd" clip-rule="evenodd" d="M24.666 0V26H22.666V0H24.666Z" fill="#85ACB0"/>
<path fill-rule="evenodd" clip-rule="evenodd" d="M28.666 4V12H26.666V4H28.666Z" fill="#85ACB0"/>
<path fill-rule="evenodd" clip-rule="evenodd" d="M32.666 8V12H30.666V8H32.666Z" fill="#85ACB0"/>
<path d="M0.666016 2C0.666016 0.89543 1.56145 0 2.66602 0H12.666C13.7706 0 14.666 0.895431 14.666 2V8C14.666 9.10457 13.7706 10 12.666 10H2.66602C1.56145 10 0.666016 9.10457 0.666016 8V2Z" fill="#0E0E0E"/>
<path d="M7.27708 8.00031H3.32508V6.90431L5.04508 5.43231C5.19975 5.29898 5.33041 5.17898 5.43708 5.07231C5.54375 4.96031 5.62908 4.85365 5.69308 4.75231C5.76241 4.64565 5.81041 4.54165 5.83708 4.44031C5.86908 4.33898 5.88508 4.22965 5.88508 4.11231V4.00031C5.88508 3.89365 5.86374 3.80031 5.82108 3.72031C5.77841 3.64031 5.72241 3.57365 5.65308 3.52031C5.58375 3.46698 5.50374 3.42698 5.41308 3.40031C5.32774 3.37365 5.23974 3.36031 5.14908 3.36031C5.01575 3.36031 4.89841 3.38165 4.79708 3.42431C4.70108 3.46698 4.61574 3.52565 4.54108 3.60031C4.47174 3.66965 4.41308 3.75231 4.36508 3.84831C4.31708 3.93898 4.27974 4.03765 4.25308 4.14431L3.20508 3.74431C3.26908 3.55231 3.35708 3.37098 3.46908 3.20031C3.58108 3.02431 3.71974 2.87231 3.88508 2.74431C4.05574 2.61098 4.25574 2.50698 4.48508 2.43231C4.71441 2.35765 4.97308 2.32031 5.26108 2.32031C5.56508 2.32031 5.83441 2.36298 6.06908 2.44831C6.30375 2.53365 6.50108 2.65098 6.66108 2.80031C6.82641 2.94965 6.95174 3.12831 7.03708 3.33631C7.12241 3.53898 7.16508 3.76031 7.16508 4.00031C7.16508 4.24031 7.12508 4.45898 7.04508 4.65631C6.96508 4.85365 6.85575 5.04031 6.71708 5.21631C6.58375 5.38698 6.42641 5.54965 6.24508 5.70431C6.06375 5.85898 5.87441 6.01631 5.67708 6.17631L4.63708 6.99231H7.27708V8.00031Z" fill="white"/>
<path d="M11.842 3.46431H9.30595L9.18595 5.23231H9.24995C9.30329 5.09898 9.36195 4.97898 9.42595 4.87231C9.49529 4.76031 9.57529 4.66698 9.66595 4.59231C9.75662 4.51231 9.86595 4.45098 9.99395 4.40831C10.122 4.36565 10.274 4.34431 10.45 4.34431C10.69 4.34431 10.914 4.38431 11.122 4.46431C11.33 4.54431 11.5113 4.66165 11.666 4.81631C11.8206 4.96565 11.9433 5.15231 12.034 5.37631C12.1246 5.59498 12.17 5.84298 12.17 6.12031C12.17 6.40298 12.122 6.66698 12.026 6.91231C11.9353 7.15231 11.7966 7.36031 11.61 7.53631C11.4286 7.71231 11.2046 7.85098 10.938 7.95231C10.6713 8.04831 10.3673 8.09631 10.026 8.09631C9.75395 8.09631 9.51395 8.06698 9.30595 8.00831C9.09795 7.94965 8.91395 7.87231 8.75395 7.77631C8.59395 7.67498 8.45529 7.56031 8.33795 7.43231C8.22062 7.30431 8.11929 7.16831 8.03395 7.02431L8.90595 6.33631C9.02862 6.55498 9.17529 6.74165 9.34595 6.89631C9.51662 7.04565 9.74595 7.12031 10.034 7.12031C10.322 7.12031 10.538 7.03765 10.682 6.87231C10.8313 6.70698 10.906 6.48831 10.906 6.21631V6.15231C10.906 5.89631 10.8313 5.69365 10.682 5.54431C10.5326 5.39498 10.3273 5.32031 10.066 5.32031C9.84729 5.32031 9.66595 5.36565 9.52195 5.45631C9.38329 5.54165 9.27662 5.62698 9.20195 5.71231L8.21795 5.57631L8.42595 2.41631H11.842V3.46431Z" fill="white"/>
</svg>

<svg width="33" height="32" fill="none" xmlns="http://www.w3.org/2000/svg"><path fill-rule="evenodd" clip-rule="evenodd" d="M4.666 12v2h-2v-2h2ZM8.666 12v4h-2v-4h2ZM12.666 12v17h-2V12h2ZM16.666 26v6h-2v-6h2Z" fill="#FF444F"/><path fill-rule="evenodd" clip-rule="evenodd" d="M20.666 22v7h-2v-7h2ZM24.666 0v26h-2V0h2ZM28.666 4v8h-2V4h2ZM32.666 8v4h-2V8h2Z" fill="#85ACB0"/><path d="M.666 2a2 2 0 0 1 2-2h10a2 2 0 0 1 2 2v6a2 2 0 0 1-2 2h-10a2 2 0 0 1-2-2V2Z" fill="#0E0E0E"/><path d="M7.277 8H3.325V6.904l1.72-1.472a7.32 7.32 0 0 0 .392-.36c.107-.112.192-.218.256-.32.07-.106.117-.21.144-.312.032-.101.048-.21.048-.328V4a.586.586 0 0 0-.232-.48.88.88 0 0 0-.504-.16.901.901 0 0 0-.352.064.844.844 0 0 0-.256.176.945.945 0 0 0-.176.248c-.048.091-.085.19-.112.296l-1.048-.4c.064-.192.152-.373.264-.544.112-.176.25-.328.416-.456.17-.133.37-.237.6-.312a2.5 2.5 0 0 1 .776-.112c.304 0 .573.043.808.128.235.086.432.203.592.352.165.15.29.328.376.536.085.203.128.424.128.664 0 .24-.04.459-.12.656-.08.198-.19.384-.328.56-.133.171-.29.334-.472.488-.181.155-.37.312-.568.472l-1.04.816h2.64V8ZM11.842 3.464H9.306l-.12 1.768h.064c.053-.133.112-.253.176-.36.07-.112.15-.205.24-.28.09-.08.2-.141.328-.184.128-.042.28-.064.456-.064.24 0 .464.04.672.12a1.602 1.602 0 0 1 .912.912c.09.219.136.467.136.744 0 .283-.048.547-.144.792-.09.24-.23.448-.416.624a1.94 1.94 0 0 1-.672.416c-.267.096-.57.144-.912.144a2.66 2.66 0 0 1-.72-.088 2.26 2.26 0 0 1-.552-.232 2.043 2.043 0 0 1-.416-.344 2.457 2.457 0 0 1-.304-.408l.872-.688c.123.219.27.406.44.56.17.15.4.224.688.224.288 0 .504-.082.648-.248.15-.165.224-.384.224-.656v-.064c0-.256-.075-.458-.224-.608-.15-.149-.355-.224-.616-.224-.219 0-.4.046-.544.136-.139.086-.245.171-.32.256l-.984-.136.208-3.16h3.416v1.048Z" fill="#fff"/></svg>
